!!!OTL: "Trost" HAB UNTER EINER LINDE DIE GANZE LIEBE NACHT
!!!ARE: Europa, Mitteleuropa, Deutschland, Mittelrhein
!!!SCT: Z1061
!!!YEM: Copyright 1995, estate of Helmut Schaffrath.
**kern
*ICvox
*Ivox
*M2/4
*k[f#]
*G:
{8d
=1
8g
8d
8B
8d
=2
8g
8b
8g}
{8b
=3
8a
8g
8f#
8e
=4
4.d}
{8d
=5
8d
8e
8f#
8g
=6
8.a
16b
8a}
{8dd
=7
8g
8g
8g
16b
16a
=8
4g
8r}
==
!!!AGN: Romanze, Ballade
!!!ONB: ESAC (Essen Associative Code) Database: ZUCCAL
!!!AMT: simple duple
!!!AIN: vox
!!!EED: Helmut Schaffrath
!!!EEV: 1.0
*-
